X:1
T:B minor Jeremiah Ingalls, 1805
T:Anonymous author, First published in Christian Harmony , 1805 86.86. 86. 86. (C. M. D.)
T:Night Thought
T:Transcribed from  Ingalls' Christian Harmony, 1805.
%%score [ 1 2 3 4 ]
L:1/8
Q:1/4=180
M:6/4
K:D
V:1 treble nm="Tr." snm="Tr."
V:2 treble nm="C." snm="C."
V:3 treble-8 nm="T." snm="T."
V:4 bass nm="B." snm="B."
V:1
"^1. How  can  I  sleep, when angels  sing,  And all    the  saints  on   high             Cry glo –ry  to  th'e – ter – nal King,  The Lamb that once did\n2. O!     how  can  I   in – ac – tive  lie,     And thought–less all the night.         When  those ce–les–tial spirits praise  The Lord with all their" f2 | %1
 d4 d2 (d2 c2) B2 | A4 d2 d4 f2 | e4 e2 (e2 d2) B2 | B6- B2 z2 f2 | d4 d2 (d2 c2) B2 | %6
 A4 d2 d4 f2 | e4 e2 (e2 d2) B2 | %8
"^1. die.         When  guardian  an–gels   fill     the   room,              And hovering round my bed,               Do   clap their  wings,  in love to him,  \n2. might.     Such   joy–ful    spi–rits   ne  –  ver   sleep                Their   love   is  ev – er     new;              Then, O  my soul,  no  lon – ger   cease" B6- B4 d2 |: %9
 A4 A2 (A2 B2) c2 | (d2 f2) d2 c6- | c6 z4 d2 | A4 A2 (A2 B2) c2 | d6- d2 z2 d2 | %14
 A4 A2 (A2 B2) c2 | (d2 f2) d2 c6 | %16
"^1. Who ___  is __   my  glo–rious  head.          When    glo – rious head.\n2. To ____ love __ and praise him too.            Such      praise him  too." (B2 c2 d2) (e2 d2) e2 |1 %17
 (e2 d2) B2 B6- ||1 B8 z2 d2 :|2 (e2 d2) B2 B6- || B12 |] %21
V:2
"^3.    For    I,      of  all   the  race. that  fell,   Or   all    the  heavenly  host,        Have greatest cause with humbler soul   To love and praise him\n4. Did Jesus leave the Father’s breast,  That heaven of heavens on high,         To come to earth, this world of woe,  For  guil –ty worms  to" F2 | %1
 F4 F2 (F2 E2) F2 | F4 F2 F4 F2 | G4 G2 G4 F2 | F6- F2 z2 F2 | F4 F2 (F2 E2) F2 | F4 F2 F4 F2 | %7
 G4 G2 G4 F2 | %8
"^3. most.     Did   God   the  Fa–ther  love   men  so,                      As   to   give  up    his   Son,                 To    be   a   ran – som, and  re–deem \n4. die.         And   has    the   Ho – ly  Ghost applied                       The blood of Christ to  me,                 To  cleanse  my  guilty  soul from sin," F6- F4 F2 |: %9
 F4 F2 A4 A2 | A4 B2 A6- | A6 z4 F2 | F4 F2 A4 A2 | A6- A2 z2 F2 | F4 F2 A4 A2 | A4 B2 A6 | %16
"^3. Them ___ from the sins they’d done.              Did    sins  they'd done.\n4. And ____  let      my  spi  – rit    free?                And    spi  –  rit     free?" (F2 E2 F2) G4 G2 |1 %17
 G4 F2 F6- ||1 F8 z2 F2 :|2 G4 F2 F6- || F12 |] %21
V:3
"^5. With me, O heaven and earth, admire,  Who am of  all    the   race,            The  chiefest  sin – ner,  and deserve,  In  hell,  the  hot – test\n6.  No    lon – ger  then  will   I    lie  here.  But rise and praise and pray;           And  join  to  sing   while  I   en – joy   A  glimpse of heavenly" d2 | %1
 B4 B2 (B2 A2) F2 | F4 A2 A4 d2 | B4 B2 (B2 A2) F2 | F6- F2 z2 d2 | B4 B2 (B2 A2) F2 | %6
 F4 A2 A4 d2 | B4 B2 (B2 A2) F2 | %8
"^5. place.        Yet  mer–cy here and truth doth meet,                    And  God  can  jus–ti –fy,             Through Jesus Christ's most precious blood,\n6. day.            I’ll  view  the  glo –ries  of  the   Lord,                     And serve him all my days.               For  what   he   in   his   es  – sence    is," F6- F4 A2 |: %9
 d4 d2 (e2 d2) e2 | f4 f2 e6- | e6 z4 A2 | d4 d2 (e2 d2) e2 | f6- f2 z2 A2 | d4 d2 (e2 d2) e2 | %15
 f4 f2 e6 | %16
"^5. So ___   vile __  a    wretch  as   I.                      Yet      wretch  as  I.\n6. My ___ soul __ shall sing his praise.                  I'll       sing his praise." (d2 e2 f2) (e2 d2) B2 |1 %17
 (B2 A2) F2 F6- ||1 F8 z2 A2 :|2 (B2 A2) F2 F6- || F12 |] %21
V:4
"^7. Such  glo–ries  bind  my  soul to him,  While them, by faith, I  see,            For  thanks  a– dore  him, O my soul,  And  for  his  gifts  to" B,,2 | %1
 B,,4 B,,2 (B,,2 A,,2) B,,2 | D,4 D,2 D,4 D,2 | E,4 E,2 E,4 F,2 | B,,6- B,,4 B,,2 | %5
 B,,4 B,,2 (B,,2 A,,2) B,,2 | D,4 D,2 D,4 D,2 | E,4 E,2 E,4 F,2 | %8
"^7.  me.         Thanks  to  the  Fa–ther  for     his   Son;                   To Christ for righteousness,                And  the  Spi–rit,  be–cause  that  he" B,,6- B,,4 D,2 |: %9
 D,4 D,2 [A,,A,]4 [A,,A,]2 | [D,D]4 [B,,B,]2 [A,,A,]6- | [A,,A,]6 z4 D,2 | %12
 D,4 D,2 [A,,A,]4 [A,,A,]2 | [D,D]6- [D,D]2 z2 D,2 | D,4 D,2 [A,,A,]4 [A,,A,]2 | %15
 [D,D]4 [B,,B,]2 [A,,A,]6 | %16
"^7.  My ___  soul     in     it     did   dress.           Thanks     it       did   dress." (F,2 E,2 D,2) E,4 E,2 |1 %17
 E,4 F,2 B,,6- ||1 B,,8 z2 D,2 :|2 E,4 F,2 B,,6- || B,,12 |] %21

